icons/code.svg

<svg width="24" height="24" viewBox="0 0 24 24" fill="none" xmlns="http://www.w3.org/2000/svg">
<path fill-rule="evenodd" clip-rule="evenodd" d="M7.70711 6.29289C8.09763 6.68342 8.09763 7.31658 7.70711 7.70711L3.41421 12L7.70711 16.2929C8.09763 16.6834 8.09763 17.3166 7.70711 17.7071C7.31658 18.0976 6.68342 18.0976 6.29289 17.7071L1.29289 12.7071C0.902369 12.3166 0.902369 11.6834 1.29289 11.2929L6.29289 6.29289C6.68342 5.90237 7.31658 5.90237 7.70711 6.29289ZM16.2929 6.29289C16.6834 5.90237 17.3166 5.90237 17.7071 6.29289L22.7071 11.2929C23.0976 11.6834 23.0976 12.3166 22.7071 12.7071L17.7071 17.7071C17.3166 18.0976 16.6834 18.0976 16.2929 17.7071C15.9024 17.3166 15.9024 16.6834 16.2929 16.2929L20.5858 12L16.2929 7.70711C15.9024 7.31658 15.9024 6.68342 16.2929 6.29289Z" fill="black"/>
</svg>

<svg
  width="24"
  height="24"
  viewBox="0 0 24 24"
  xmlns="http://www.w3.org/2000/svg"
>
  <path
    fill-rule="evenodd"
    clip-rule="evenodd"
    d="M7.707 6.293a1 1 0 0 1 0 1.414L3.414 12l4.293 4.293a1 1 0 1 1-1.414 1.414l-5-5a1 1 0 0 1 0-1.414l5-5a1 1 0 0 1 1.414 0zm8.586 0a1 1 0 0 1 1.414 0l5 5a1 1 0 0 1 0 1.414l-5 5a1 1 0 0 1-1.414-1.414L20.586 12l-4.293-4.293a1 1 0 0 1 0-1.414z"
  />
</svg>
